;TIME:2752.93
;Filament used:3.99304m
;Layer height:0.200
; HEADER_BLOCK_START
; generated by Creality_Print V6.2.2.3203 on 2025-09-20 at 18:44:07
; total layer number: 190
; filament_density: 1.24
; filament_diameter: 1.75
; max_z_height: 38.00
; creality_uuid: 32586c7d-b6f8-431d-8d1b-141cd290cbc8
; HEADER_BLOCK_END

; MINX = 71.62
; MINY = 103.81
; MINZ = 0.00
; MAXX = 97.62
; MAXY = 129.75
; MAXZ = 38.00

; THUMBNAIL_BLOCK_START

;
; THUMBNAIL_BLOCK_END

; THUMBNAIL_BLOCK_START

;
; THUMBNAIL_BLOCK_END

; external perimeters extrusion width = 0.42mm
; perimeters extrusion width = 0.45mm
; infill extrusion width = 0.45mm
; solid infill extrusion width = 0.42mm
; top infill extrusion width = 0.42mm
; support material extrusion width = 0.40mm
; first layer extrusion width = 0.50mm

; EXECUTABLE_BLOCK_START
M73 P0 R45
M201 X5000 Y5000 Z500 E5000
M203 X500 Y500 Z30 E100
M204 P5000 R2500 T5000 ; sets acceleration (P, T) and retract acceleration (R), mm/sec^2
M205 X10.00 Y10.00 Z0.40 E5.00 ; sets the jerk limits, mm/sec
;TYPE:Custom
M220 S100 ;Reset Feedrate 
M221 S100 ;Reset Flowrate 
 
M140 S50 ;Set final bed temp 
G28 ;Home 
 
G92 E0 ;Reset Extruder 
G1 Z2.0 F3000 ;Move Z Axis up 
M104 S190 ;Set final nozzle temp 
G1 X-2.1 Y20 Z0.28 F5000.0 ;Move to start position 
M190 S50 ;Wait for bed temp to stabilize 
M109 S190 ;Wait for nozzle temp to stabilize 
G1 X-2.1 Y145.0 Z0.28 F1500.0 E15 ;Draw the first line 
G1 X-2.4 Y145.0 Z0.28 F5000.0 ;Move to side a little 
G1 X-2.4 Y20 Z0.28 F1500.0 E30 ;Draw the second line 
G92 E0  ;Reset Extruder 
G1 E-1.0000 F1800 ;Retract a bit 
G1 Z2.0 F3000 ;Move Z Axis up 
G1 E0.0000 F1800
G90
G21
M83 ; use relative distances for extrusion
;filament start gcode
G1 E-1.2 F2400
G1 Z.2 F9000
M106 S0
;LAYER_CHANGE
;Z:0.2
;HEIGHT:0.2
;BEFORE_LAYER_CHANGE
;0.2
G92 E0

;_SET_FAN_SPEED_CHANGING_LAYER
M204 P500
M205 X10 Y10
; printing object adapter.stl id:444455765787870760 copy 0
M204 T500
G1 X71.204 Y116.58 Z.4 F9000
G1 Z.2
G1 E1.2 F1800
;TYPE:Support
;WIDTH:0.5
G3 X74.781 Y118.243 I-.351 J5.435 E.14574
G2 X76.268 Y122.17 I10.101 J-1.581 E.1527
G3 X71.135 Y116.577 I-5.397 J-.199 E.92125
G1 X75.483 Y124.35 F9000
G1 F1800
G1 X75.483 Y121.673 E.09667
G3 X74.975 Y120.588 I8.372 J-4.58 E.04328
G1 X74.975 Y124.798 E.15202
G3 X74.467 Y125.426 I-1.983 J-1.085 E.02931
G1 X74.467 Y118.795 E.23943
G2 X73.959 Y118.035 I-1.258 J.292 E.03371
G1 X73.959 Y125.903 E.28408
G1 X73.451 Y126.238 E.02197
G1 X73.451 Y117.7 E.30829
G2 X72.944 Y117.433 I-.988 J1.266 E.02082
G1 X72.944 Y126.505 E.32754
G1 X72.436 Y126.722 E.01994
G1 X72.436 Y117.216 E.34321
G2 X71.928 Y117.096 I-.586 J1.339 E.01895
G1 X71.928 Y126.842 E.35191
G3 X71.42 Y126.937 I-.514 J-1.352 E.01875
G1 X71.42 Y117.002 E.35872
G1 X70.912 Y116.979 E.01836
G1 X70.912 Y126.96 E.36036
G3 X70.404 Y126.94 I-.199 J-1.409 E.01845
G1 X70.404 Y116.999 E.35893
G1 X69.896 Y117.068 E.0185
G1 X69.896 Y126.871 E.35396
G3 X69.389 Y126.733 I.125 J-1.468 E.0191
G1 X69.389 Y117.205 E.34402
G2 X68.881 Y117.374 I.211 J1.484 E.01943
G1 X68.881 Y126.565 E.33185
G1 X68.373 Y126.291 E.02082
G1 X68.373 Y117.647 E.31211
G2 X67.865 Y117.983 I.672 J1.567 E.02211
G1 X67.865 Y125.955 E.28784
G3 X67.357 Y125.534 I.908 J-1.61 E.02396
G1 X67.357 Y118.405 E.25739
G1 X66.849 Y118.986 E.02787
G1 X66.849 Y124.952 E.21541
G3 X66.341 Y124.108 I12.871 J-8.317 E.03558
G1 X66.341 Y119.417 E.16938
G1 E-1.2 F2400
;WIPE_START
G1 F1800
G1 X66.341 Y121.417
;WIPE_END
G1 X69.681 Y119.57 Z.4 F9000
G1 X84.713 Y111.257 Z.4
G1 Z.2
G1 E1.2 F1800
G3 X83.204 Y111.36 I-.397 J5.3 E1.15085
G3 X84.645 Y111.254 I1.012 J3.918 E.05246
G1 X89.195 Y118.292 F9000
G1 F1800
G1 X89.195 Y115.583 E.09781
G2 X88.687 Y114.205 I-4.051 J.71 E.05331
G1 X88.687 Y118.896 E.1694
G3 X88.18 Y119.654 I-2.34 J-1.021 E.0331
G1 X88.18 Y113.447 E.22409
G2 X87.672 Y112.923 I-1.699 J1.137 E.02651
G1 X87.672 Y120.178 E.26197
G3 X87.164 Y120.579 I-1.358 J-1.199 E.02348
G1 X87.164 Y112.522 E.29091
G2 X86.656 Y112.201 I-1.139 J1.239 E.02182
G1 X86.656 Y120.9 E.31412
G1 X86.148 Y121.118 E.01994
G1 X86.148 Y111.984 E.32979
G2 X85.64 Y111.819 I-.706 J1.317 E.01937
G1 X85.64 Y121.282 E.34165
G1 X85.132 Y121.398 E.01881
G1 X85.132 Y111.703 E.35002
G2 X84.624 Y111.665 I-.578 J4.27 E.0184
G1 X84.624 Y121.436 E.35278
G3 X84.117 Y121.449 I-.291 J-1.392 E.01844
G1 X84.117 Y111.652 E.35376
G1 X83.609 Y111.72 E.0185
G1 X83.609 Y121.381 E.34879
G3 X83.101 Y121.275 I.037 J-1.452 E.01883
G1 X83.101 Y111.826 E.34116
G1 X82.593 Y111.991 E.01928
G1 X82.593 Y121.11 E.32924
G3 X82.085 Y120.865 I.42 J-1.522 E.02046
G1 X82.085 Y112.236 E.31158
G2 X81.577 Y112.536 I.575 J1.55 E.02143
G1 X81.577 Y120.565 E.28986
G1 X81.069 Y120.16 E.02345
G1 X81.069 Y112.941 E.26062
G2 X80.562 Y113.497 I1.276 J1.677 E.02732
G1 X80.562 Y119.604 E.22051
G3 X80.054 Y118.831 I1.875 J-1.786 E.03357
G1 X80.054 Y114.27 E.16471
G2 X79.546 Y118.152 I6.913 J2.879 E.14305
M73 P1 R45
G1 E-1.2 F2400
;WIPE_START
G1 F1800
G1 X79.546 Y116.152
;WIPE_END
G1 X82.93 Y114.388 Z.4 F9000
G1 X98.704 Y106.163 Z.4
G1 Z.2
G1 E1.2 F1800
G3 X94.463 Y115.29 I-.385 J5.37 E.75193
G2 X92.967 Y111.368 I-10.003 J1.569 E.15268
G3 X98.635 Y106.16 I5.555 J.356 E.3069
G1 X102.908 Y114.089 F9000
G1 F1800
G1 X102.908 Y109.488 E.16613
G2 X102.4 Y108.619 I-2.649 J.965 E.03654
G1 X102.4 Y114.484 E.21178
G3 X101.892 Y115.08 I-1.896 J-1.101 E.02843
G1 X101.892 Y108.023 E.25483
G2 X101.384 Y107.568 I-1.507 J1.172 E.02475
G1 X101.384 Y115.535 E.28767
G1 X100.876 Y115.871 E.02197
G1 X100.876 Y107.233 E.31188
G2 X100.368 Y106.984 I-.94 J1.275 E.02053
G1 X100.368 Y116.12 E.32986
G3 X99.86 Y116.326 I-.823 J-1.296 E.0199
G1 X99.86 Y106.777 E.34478
G1 X99.353 Y106.661 E.01881
G1 X99.353 Y116.442 E.35315
G3 X98.845 Y116.523 I-.476 J-1.359 E.01867
G1 X98.845 Y106.581 E.35896
G1 X98.337 Y106.558 E.01836
G1 X98.337 Y116.545 E.36061
G3 X97.829 Y116.512 I-.162 J-1.416 E.01848
G1 X97.829 Y106.591 E.35819
G1 X97.321 Y106.66 E.0185
G1 X97.321 Y116.443 E.35322
G3 X96.813 Y116.291 I.164 J-1.475 E.01924
G1 X96.813 Y106.812 E.34226
G2 X96.305 Y106.997 I.255 J1.492 E.01962
G1 X96.305 Y116.107 E.32892
G1 X95.798 Y115.833 E.02082
G1 X95.798 Y107.27 E.30918
G2 X95.29 Y107.626 I.726 J1.577 E.02251
G1 X95.29 Y115.478 E.2835
G3 X94.782 Y114.765 I.229 J-.701 E.03383
G1 X94.782 Y108.074 E.24159
G2 X94.274 Y108.676 I1.407 J1.701 E.02861
G1 X94.274 Y112.971 E.15508
G2 X93.766 Y111.886 I-8.882 J3.496 E.04328
G1 X93.766 Y109.125 E.09969
G1 E-1.2 F2400
;WIPE_START
G1 F9000
G1 X93.766 Y111.125
;WIPE_END
G1 X93.759 Y114.942 Z.4
G1 X93.754 Y117.3 Z.4
G1 Z.2
G1 E1.2 F1800
;TYPE:Outer wall
;WIDTH:0.499995
G1 X93.715 Y117.929 E.02275
G1 X93.499 Y119.058 E.04152
;WIDTH:0.499818
G1 X93.144 Y120.152 E.04152
G1 X92.654 Y121.194 E.04154
G1 X92.037 Y122.165 E.04153
G1 X91.304 Y123.052 E.04153
G1 X90.465 Y123.84 E.04152
G1 X89.534 Y124.516 E.04154
G1 X88.526 Y125.07 E.04152
G1 X87.456 Y125.494 E.04152
G1 X86.341 Y125.78 E.04154
G1 X85.2 Y125.924 E.04152
G1 X84.049 Y125.924 E.04153
G1 X82.908 Y125.78 E.04152
G1 X81.793 Y125.494 E.04153
;WIDTH:0.500618
G1 X80.72 Y125.068 E.04176
G1 X79.715 Y124.516 E.04144
;WIDTH:0.499803
G1 X78.784 Y123.84 E.04153
G1 X77.945 Y123.052 E.04153
G1 X77.212 Y122.165 E.04153
;WIDTH:0.50062
G1 X76.594 Y121.19 E.04175
G1 X76.105 Y120.153 E.04144
;WIDTH:0.499803
G1 X75.75 Y119.059 E.04152
G1 X75.534 Y117.928 E.04154
G1 X75.462 Y116.78 E.04152
;WIDTH:0.499998
G1 X75.534 Y115.631 E.04157
G1 X75.75 Y114.501 E.04152
;WIDTH:0.499807
G1 X76.105 Y113.407 E.04152
G1 X76.595 Y112.365 E.04154
G1 X77.212 Y111.394 E.04153
G1 X77.945 Y110.507 E.04153
G1 X78.784 Y109.72 E.04152
G1 X79.715 Y109.043 E.04153
G1 X80.723 Y108.489 E.04152
G1 X81.793 Y108.066 E.04152
G1 X82.908 Y107.779 E.04154
G1 X84.049 Y107.635 E.04152
G1 X85.2 Y107.635 E.04154
G1 X86.342 Y107.779 E.04152
G1 X87.456 Y108.065 E.04152
G1 X88.526 Y108.489 E.04153
G1 X89.534 Y109.043 E.04152
;WIDTH:0.499985
G1 X90.466 Y109.721 E.04159
G1 X91.304 Y110.508 E.0415
;WIDTH:0.499728
G1 X92.037 Y111.394 E.04152
G1 X92.654 Y112.366 E.04153
G1 X93.144 Y113.407 E.04152
G1 X93.499 Y114.501 E.04151
G1 X93.714 Y115.627 E.04137
G1 X93.787 Y116.78 E.04166
;WIDTH:0.499995
G1 X93.757 Y117.26 E.01738
G1 E-1.2 F2400
;WIPE_START
G1 F9000
G1 X93.715 Y117.929
G1 X93.499 Y119.058
G1 X93.444 Y119.23
;WIPE_END
G1 X89.788 Y120.324 Z.4
G1 X79.119 Y123.518 Z.4
G1 Z.2
G1 E1.2 F1800
;WIDTH:0.49976
G1 X79.076 Y123.487 E.00192
G1 X78.279 Y122.739 E.03945
G1 X77.582 Y121.896 E.03946
G1 X76.991 Y120.962 E.03988
G1 X76.531 Y119.984 E.039
G1 X76.193 Y118.945 E.03945
G1 X75.988 Y117.871 E.03945
G1 X75.92 Y116.78 E.03945
G1 X75.989 Y115.686 E.03954
G1 X76.193 Y114.615 E.03935
G1 X76.531 Y113.575 E.03945
G1 X76.996 Y112.586 E.03945
G1 X77.582 Y111.663 E.03945
G1 X78.279 Y110.821 E.03945
G1 X79.076 Y110.072 E.03945
;WIDTH:0.499816
G1 X79.96 Y109.43 E.03946
G1 X80.918 Y108.903 E.03945
G1 X81.934 Y108.501 E.03945
G1 X82.993 Y108.229 E.03946
G1 X84.078 Y108.092 E.03945
G1 X85.171 Y108.092 E.03946
G1 X86.256 Y108.229 E.03945
G1 X87.314 Y108.501 E.03945
G1 X88.331 Y108.903 E.03945
G1 X89.289 Y109.43 E.03945
G1 X90.175 Y110.074 E.03956
G1 X90.97 Y110.821 E.03935
G1 X91.667 Y111.663 E.03945
G1 X92.253 Y112.586 E.03946
G1 X92.718 Y113.575 E.03945
G1 X93.056 Y114.615 E.03945
;WIDTH:0.500627
G1 X93.258 Y115.677 E.03908
G1 X93.329 Y116.78 E.03996
;WIDTH:0.49976
G1 X93.26 Y117.873 E.03955
G1 X93.056 Y118.944 E.03935
G1 X92.718 Y119.984 E.03945
G1 X92.253 Y120.973 E.03945
G1 X91.667 Y121.896 E.03945
G1 X90.97 Y122.739 E.03945
G1 X90.173 Y123.487 E.03945
G1 X89.289 Y124.129 E.03945
G1 X88.331 Y124.656 E.03945
G1 X87.314 Y125.058 E.03945
G1 X86.256 Y125.33 E.03945
G1 X85.171 Y125.467 E.03945
G1 X84.078 Y125.467 E.03945
G1 X82.993 Y125.33 E.03945
G1 X81.934 Y125.058 E.03946
G1 X80.907 Y124.65 E.03989
G1 X79.96 Y124.129 E.039
G1 X79.151 Y123.542 E.03609
; stop printing object adapter.stl id:444455765787870760 copy 0
G1 E-1.2 F2400
;WIPE_START
G1 F9000
G1 X79.076 Y123.487
G1 X78.279 Y122.739
G1 X77.76 Y122.112
;WIPE_END
;TIME_ELAPSED:41.232151

M106 S255
;LAYER_CHANGE
;Z:0.4
;HEIGHT:0.2
;BEFORE_LAYER_CHANGE
;0.4
G92 E0

;_SET_FAN_SPEED_CHANGING_LAYER
M204 P2500
; printing object adapter.stl id:444455765787870760 copy 0
M204 T2500
G1 X69.155 Y119.934 Z.4 F9000
G1 E1.2 F1800
;TYPE:Support
;WIDTH:0.4
G1 F3000
G3 X70.764 Y119.304 I1.764 J2.137 E.04954
G1 X70.781 Y118.904 E.01128
G1 X71.254 Y118.926 E.01335
G3 X70.728 Y118.902 I-.4 J3.038 E.52816
G1 X71.272 Y118.526 F9000
G1 F3000
G3 X70.71 Y118.501 I-.436 J3.437 E.59819
G1 X71.219 Y118.524 E.01437
G1 E-1.2 F2400
;WIPE_START
G1 F9000
G1 X70.71 Y118.501
G1 X69.501 Y118.777
G1 X69.292 Y118.915
;WIPE_END
G1 X72.93 Y117.763 Z.6
G1 X82.695 Y114.67 Z.6
G1 Z.4
G1 E1.2 F1800
G1 F3000
G3 X84.292 Y114.018 I1.748 J1.998 E.04955
G1 X84.31 Y113.618 E.01128
G1 X84.759 Y113.638 E.01268
G3 X84.257 Y113.616 I-.382 J2.889 E.50218
G1 X84.777 Y113.239 F9000
G1 F3000
G3 X84.239 Y113.214 I-.417 J3.285 E.57165
G1 X84.724 Y113.236 E.0137
G1 E-1.2 F2400
;WIPE_START
G1 F9000
G1 X84.239 Y113.214
G1 X83.076 Y113.48
G1 X82.807 Y113.657
;WIPE_END
G1 X86.464 Y112.564 Z.6
G1 X96.656 Y109.516 Z.6
G1 Z.4
G1 E1.2 F1800
G1 F3000
G3 X98.264 Y108.887 I1.764 J2.137 E.04954
G1 X98.282 Y108.487 E.01128
G1 X98.754 Y108.508 E.01335
G3 X98.228 Y108.485 I-.4 J3.037 E.52798
G1 X98.772 Y108.109 F9000
G1 F3000
G3 X98.21 Y108.083 I-.436 J3.437 E.59819
G1 X98.719 Y108.106 E.01437
G1 E-1.2 F2400
;WIPE_START
G1 F9000
G1 X98.21 Y108.083
G1 X97.001 Y108.359
G1 X96.792 Y108.497
;WIPE_END
G1 X95.605 Y112.124 Z.6
G1 X93.92 Y117.27 Z.6
G1 Z.4
G1 E1.2 F1800
M204 P1000
;TYPE:Outer wall
;WIDTH:0.419999
G1 F3600
G1 X93.878 Y117.949 E.02024
G1 X93.658 Y119.099 E.03489
G1 X93.296 Y120.213 E.03489
G1 X92.797 Y121.275 E.03495
G1 X92.15 Y122.286 E.03575
G1 X91.423 Y123.164 E.03396
G1 X90.57 Y123.966 E.03489
G1 X89.622 Y124.654 E.03489
G1 X88.596 Y125.219 E.03489
G1 X87.507 Y125.65 E.03489
G1 X86.372 Y125.941 E.03489
G1 X85.21 Y126.088 E.03489
G1 X84.037 Y126.088 E.03495
G1 X82.846 Y125.933 E.03577
G1 X81.742 Y125.65 E.03394
G1 X80.653 Y125.219 E.03489
G1 X79.627 Y124.654 E.03489
G1 X78.679 Y123.966 E.03489
G1 X77.826 Y123.164 E.03489
G1 X77.079 Y122.262 E.03489
G1 X76.451 Y121.273 E.03489
G1 X75.953 Y120.213 E.03489
G1 X75.591 Y119.099 E.03489
G1 X75.371 Y117.949 E.03489
G1 X75.298 Y116.78 E.03489
G1 X75.371 Y115.611 E.03489
G1 X75.591 Y114.46 E.03489
G1 X75.953 Y113.346 E.03489
G1 X76.452 Y112.285 E.03495
G1 X77.099 Y111.274 E.03575
G1 X77.826 Y110.395 E.03396
G1 X78.679 Y109.593 E.03489
G1 X79.627 Y108.905 E.03489
G1 X80.653 Y108.341 E.03489
G1 X81.742 Y107.909 E.03489
G1 X82.877 Y107.618 E.03489
G1 X84.039 Y107.471 E.03489
G1 X85.212 Y107.471 E.03495
G1 X86.402 Y107.626 E.03575
G1 X87.507 Y107.909 E.03396
G1 X88.596 Y108.341 E.03489
G1 X89.622 Y108.905 E.03489
G1 X90.57 Y109.593 E.03489
G1 X91.423 Y110.395 E.03489
G1 X92.17 Y111.298 E.03489
G1 X92.798 Y112.286 E.03489
G1 X93.296 Y113.346 E.03489
G1 X93.658 Y114.46 E.03489
G1 X93.878 Y115.611 E.03489
G1 X93.951 Y116.78 E.03489
G1 X93.923 Y117.23 E.01345
G1 E-1.2 F2400
;WIPE_START
G1 F9000
G1 X93.878 Y117.949
G1 X93.658 Y119.099
G1 X93.624 Y119.203
;WIPE_END
G1 X89.951 Y120.238 Z.6
G1 X79.336 Y123.23 Z.6
G1 Z.4
G1 E1.2 F1800
G1 F2700
G1 X79.307 Y123.21 E.00105
G1 X78.542 Y122.491 E.03127
G1 X77.874 Y121.684 E.0312
G1 X77.314 Y120.801 E.03114
G1 X76.867 Y119.851 E.03127
G1 X76.543 Y118.855 E.0312
G1 X76.346 Y117.824 E.03127
G1 X76.281 Y116.78 E.03116
G1 X76.347 Y115.732 E.03128
G1 X76.543 Y114.705 E.03114
G1 X76.867 Y113.708 E.03123
G1 X77.307 Y112.772 E.03081
G1 X77.852 Y111.911 E.03035
G1 X78.542 Y111.068 E.03245
G1 X79.307 Y110.35 E.03125
G1 X80.154 Y109.735 E.03118
G1 X81.07 Y109.231 E.03114
G1 X82.046 Y108.844 E.03127
G1 X83.061 Y108.584 E.03121
G1 X84.101 Y108.452 E.03123
G1 X85.137 Y108.452 E.03086
G1 X86.146 Y108.578 E.03029
G1 X87.202 Y108.844 E.03244
G1 X88.179 Y109.231 E.0313
G1 X89.095 Y109.735 E.03114
G1 X89.944 Y110.352 E.03126
G1 X90.707 Y111.068 E.03117
G1 X91.375 Y111.875 E.0312
G1 X91.935 Y112.759 E.03117
G1 X92.382 Y113.708 E.03125
G1 X92.706 Y114.705 E.03123
G1 X92.903 Y115.736 E.03127
G1 X92.968 Y116.78 E.03116
G1 X92.902 Y117.827 E.03125
G1 X92.706 Y118.855 E.03117
G1 X92.382 Y119.851 E.0312
G1 X91.942 Y120.787 E.03081
G1 X91.397 Y121.649 E.03038
G1 X90.707 Y122.491 E.03243
G1 X89.942 Y123.21 E.03127
G1 X89.095 Y123.825 E.03118
G1 X88.179 Y124.328 E.03113
G1 X87.203 Y124.715 E.03127
G1 X86.188 Y124.976 E.03122
G1 X85.148 Y125.107 E.03122
G1 X84.112 Y125.107 E.03086
G1 X83.103 Y124.981 E.03029
G1 X82.047 Y124.715 E.03244
G1 X81.07 Y124.328 E.0313
G1 X80.154 Y123.825 E.03113
G1 X79.368 Y123.254 E.02894
G1 E-1.2 F2400
;WIPE_START
G1 F9000
G1 X79.307 Y123.21
G1 X78.542 Y122.491
G1 X77.984 Y121.817
;WIPE_END
G1 X81.682 Y120.873 Z.6
G1 X93.39 Y117.885 Z.6
G1 Z.4
G1 E1.2 F1800
M204 P2000
;TYPE:Inner wall
;WIDTH:0.647088
G1 F5400
M106 S255
G1 X93.39 Y117.888 E.00013
G1 X93.182 Y118.977 E.05291
;WIDTH:0.646868
G1 X92.839 Y120.032 E.05293
G1 X92.367 Y121.036 E.05293
;WIDTH:0.652044
G1 X91.77 Y121.971 E.05338
G1 X91.066 Y122.827 E.05334
;WIDTH:0.647084
G1 X90.256 Y123.588 E.05303
G1 X89.359 Y124.239 E.05291
;WIDTH:0.646868
G1 X88.387 Y124.774 E.05289
G1 X87.355 Y125.182 E.05297
G1 X86.28 Y125.458 E.05294
G1 X85.179 Y125.597 E.05293
G1 X84.069 Y125.597 E.05298
;WIDTH:0.65204
G1 X82.969 Y125.456 E.05336
G1 X81.895 Y125.183 E.05331
;WIDTH:0.64709
G1 X80.862 Y124.774 E.05303
G1 X79.89 Y124.239 E.05291
;WIDTH:0.64687
G1 X78.993 Y123.588 E.05289
G1 X78.184 Y122.828 E.05298
G1 X77.477 Y121.973 E.05293
G1 X76.883 Y121.037 E.05289
G1 X76.41 Y120.032 E.05298
G1 X76.067 Y118.977 E.05293
;WIDTH:0.647082
G1 X75.859 Y117.886 E.05299
G1 X75.789 Y116.78 E.05291
G1 X75.859 Y115.671 E.05299
G1 X76.067 Y114.582 E.05291
;WIDTH:0.64687
G1 X76.41 Y113.527 E.05293
G1 X76.882 Y112.523 E.05293
;WIDTH:0.652048
G1 X77.479 Y111.588 E.05338
G1 X78.183 Y110.732 E.05334
;WIDTH:0.647084
G1 X78.993 Y109.971 E.05303
G1 X79.89 Y109.32 E.05291
;WIDTH:0.646868
G1 X80.862 Y108.786 E.05289
G1 X81.894 Y108.377 E.05297
